!!!!SEGMENT: pl-wnifc--6670-n--001-006_gall-jan-karol--piesni-polskie-na-chor-meski-z-i-6-juz-cie-zegnam-najmilejszy.krn
!!!cenid: 19xx:174
!!!COM: Gall, Jan Karol
!!!COM-rismID: pe50042628
!!!CDT: 1856-1912
!!!CNT: Polish
!!!GTL: Pieśni polskie na chór męski (z. I)
!!!OTL: 6. Już cię żegnam najmilejszy
!!!OMV: 006
!!!PDT:
!!!AGN:
!!!YEC: Copyright 2022 Narodowy Instytut Fryderyka Chopina (https://polishscores.org)
!!!YEM: License CC-BY-4.0 (https://creativecommons.org/licenses/by/4.0)
!!!SMS-siglum: PL-Wnifc
!!!SMS-shelfmark: 6670/n
!!!SMS-variant:
!!!SMS-altvar:
!!!SMS-shelfwork: 001-006 G
!!!NIFC-rismSourceID: 1001152877
!!!NIFC-rismChildID: 1001152889
!!!NIFC-islandoraID: nifc:213182
!!!URL-pdf-islandora: https://repozytorium.nifc.pl/islandora/object/nifc:213182/datastream/PDF/view
!!!URL-scan: https://polish.musicsources.pl/pl/lokalizacje/galeria/druki-muzyczne/16895/5 @EN{Scan on Polish Music Sources Website} @PL{Skany w portalu Dziedzictwo Muzyki Polskiej w otwartym dostępie}
!!!IIIF:
!!!ONB-nifc:
!!!AIN: 1 bass 1 tenor
!!!key: c
**kern	**kern	**text	**text
*part2	*part1	*part1	*part1
*staff2	*staff1	*staff1	*staff1
*ICvox	*ICvox	*	*
*Ibass	*Itenor	*	*
*I"Basy.	*I"Tenory.	*	*
*I'B	*I'T	*	*
*clefF4	*clefG2	*	*
*k[b-e-a-]	*k[b-e-a-]	*	*
*c:	*c:	*	*
*M3/4	*M3/4	*	*
=1	=1	=1	=1
!!!OMD: Andante sostenuto.
*^	*	*	*
*	*	*^	*	*
*	*	*	*	*v:1	*
8G/	8C\	8ee-/	8cc\	Już	.
8G/	8C\	8ee-/	8cc\	cię	.
8G/L	4C\	8ee-/L	4cc\	żeg-	.
8F/J	.	8dd/J	.	.	.
4E-/	4C\	4cc/	4cc\	-nam	.
=2	=2	=2	=2	=2	=2
8F/	8FF\	8dd/	8a-\	naj-	.
8F/	8FF\	8dd/	8a-\	-mi-	.
8F/L	4FF\	8dd/L	4a-\	-lej-	.
8E-/J	.	8cc/J	.	.	.
4D/	8GG\L	4bn/	4g\	-szy	.
.	8F\J	.	.	.	.
=3	=3	=3	=3	=3	=3
4E-/	4E-\	4cc/	4g\	sy-	.
4G/	4C\	4ee-/	4cc\	-nu	.
4F/	4FF\	4dd/	4a-\	Chry-	.
!!LO:LB:g=original
=4	=4	=4	=4	=4	=4
8D/L	4GG\	4bn/	4g\	-stu-	.
8F/J	.	.	.	.	.
(4F;/	2C;\	2cc;/	2g;\	-sie!	.
4E-;/)	.	.	.	.	.
=5	=5	=5	=5	=5	=5
8G/	8C\	8ee-/	8cc\	Ser-	.
8G/	8C\	8ee-/	8cc\	-ca	.
8G/L	4C\	8ee-/L	4cc\	me-	.
8F/J	.	8dd/J	.	.	.
4E-/	4C\	4cc/	4cc\	-go	.
=6	=6	=6	=6	=6	=6
8F/	8FF\	8dd/	8a-\	Ty	.
8F/	8FF\	8dd/	8a-\	po-	.
8F/L	4FF\	8dd/L	4a-\	-cie-	.
8E-/J	.	8cc/J	.	.	.
4D/	8GG\L	4bn/	4g\	-cho	.
.	8F\J	.	.	.	.
=7	=7	=7	=7	=7	=7
4E-/	4E-\	4cc/	4g\	ślicz-	.
4G/	4C\	4ee-/	4cc\	-ny	.
4F/	4FF\	4dd/	4a-\	Je-	.
!!LO:LB:g=original
=8	=8	=8	=8	=8	=8
8D/L	4GG\	4bn/	4g\	-zu-	.
8F/J	.	.	.	.	.
(4F/	2C;\	2b;/	2g;\	-sie!	.
4E-;/)	.	.	.	.	.
=9	=9	=9	=9	=9	=9
*	*	*	*	*v:1	*v:2
8E-/	8C\	8gg/	8cc\	Cóż	Weź
8E-/	8C\	8gg/	8cc\	ja	mię
8E-/L	4C\	8gg/L	4cc\	po-	ra-
8A-/J	.	8ff/J	.	.	.
4G/	4C\	4ee-/	4cc\	-cznę	-czej
=10	=10	=10	=10	=10	=10
8A-/	8C\	8ff/	8dd\	u-	na
8A-/	8C\	8ff/	8dd\	-tra-	śmierć
8A-/L	4C\	8ff/L	8dd\L	-pio-	z So-
8G/J	.	8ee-/J	8cc\J	.	.
4A-/	4C\	4dd/	4bn\	-na	-bą
!!LO:LB:g=original
=11	=11	=11	=11	=11	=11
8G/	8C\	8ee-/	8cc\	mat-	wo-
8G/	8C\	8ee-/	8cc\	-ka	-lę
8G/L	4C\	8ee-/L	8cc\L	Two-	u-
8F/J	.	8dd/J	8bn\J	.	.
4E-/	4C\	4cc/	4cc\	-ja	-mrzeć
=12	=12	=12	=12	=12	=12
8C/	8AA-\	8dd/	8f#X\	o-	ra-
8D/	8AA-\	8cc/	8f#\	-pu-	-zem
4D/	4GG\	4cc/	8g\L	-szczo-	z to-
.	.	.	8f#\J	.	.
4D/	8GG\L	4bn/	4g\	-na	-bą
.	8Fn\J	.	.	.	.
=13	=13	=13	=13	=13	=13
4E-/	4E-\	4cc/	4g\	stra-	żyć
4G/	4C\	4ee-/	4cc\	-ci-	s po-
4F/	4FF\	4dd/	4a-\	-wszy	-łem
=14	=14	=14	=14	=14	=14
8D/L	4GG\	4bn/	4g\	cie-	w nie-
8F/J	.	.	.	.	.
(4F/	2C;\	2cc;/	2g;\	-bie?	-bie!
4E-;/)	.	.	.	.	.
*v	*v	*	*	*	*
*	*v	*v	*	*
==	==	==	==
*-	*-	*-	*-
!!!system-decoration: [(s1,s2)]
!!!ENC: Andrzej Gręziak
!!!END: 2024-05-02
!!!EED: Andrzej Borzym
!!!EEV: 2025-03-06
